X:1
T: The Humors of Bantry
C:
R:Jig
Q:180
K:G
M:6/8
L:1/16
d2|g2f2g2 efg2e2|d2B2G2 A2G2E2|D2E2G2 A2G2A2|B2G2B2 A2G2E2|g2f2g2 efg2e2|d2B2G2 A2G2E2|D2E2G2 A2G2A2|B2G2G2 G4d2|
g2f2g2 efg2e2|d2B2G2 A2G2E2|D2E2G2 A2G2A2|B2G2B2 A2G2E2|g2f2g2 efg2e2|d2B2G2 A2G2E2|D2E2G2 A2G2A2|B2G2G2 G4d2|
e2d2d2 g2d2d2|e2d2d2 g2d2B2|d2e2f2 g2f2g2|e2d2B2 A2G2E2|g2f2g2 efg2e2|d2B2G2 A2G2E2|D2G2G2 ABc2A2|B2G2G2 G4d2|
e2d2d2 g2d2d2|e2d2d2 g2d2B2|d2e2f2 g2f2g2|e2d2B2 A2G2E2|g2f2g2 a2g2a2|b2g2e2 e2d2B2|G2F2G2 ABc2A2|B2G2G2 G4||
